images_elementary_svg/sw/res/sc20234.svg

<svg height="16" width="16" xmlns="http://www.w3.org/2000/svg" xmlns:xlink="http://www.w3.org/1999/xlink"><linearGradient id="a" gradientUnits="userSpaceOnUse" x1="10.476" x2="23.695" y1="3.225" y2="3.225"><stop offset="0" stop-color="#cd9ef7"/><stop offset="1" stop-color="#a56de2"/></linearGradient><linearGradient id="b"><stop offset="0" stop-color="#fff"/><stop offset=".21" stop-color="#fff" stop-opacity=".235"/><stop offset=".859" stop-color="#fff" stop-opacity=".157"/><stop offset="1" stop-color="#fff" stop-opacity=".392"/></linearGradient><linearGradient id="c" gradientTransform="matrix(0 -.5372 .57682 0 -15.997 19.866)" gradientUnits="userSpaceOnUse" x1="30.782" x2="31.082" xlink:href="#b" y1="47.444" y2="66.576"/><linearGradient id="d" gradientTransform="matrix(-.34745 0 0 -.37308 21.79 32.637)" gradientUnits="userSpaceOnUse" x1="30.655" x2="30.828" xlink:href="#b" y1="65.687" y2="48.688"/><linearGradient id="e" gradientTransform="matrix(0 -.31835 .29648 0 5.84 19.373)" gradientUnits="userSpaceOnUse" x1="39.242" x2="10.382" y1="15.935" y2="17.179"><stop offset="0" stop-color="#90dbec"/><stop offset=".262" stop-color="#55c1ec"/><stop offset=".705" stop-color="#3689e6"/><stop offset="1" stop-color="#2b63a0"/></linearGradient><linearGradient id="f" gradientUnits="userSpaceOnUse" x1="8.338983" x2="8.288135" y1="14.008475" y2="1.127119"><stop offset="0" stop-opacity=".34"/><stop offset="1" stop-opacity=".247"/></linearGradient><path d="m1.974.5c-.817 0-1.474.657-1.474 1.474v12.526h14v-12.527c0-.816-.657-1.473-1.474-1.473z" fill="#e9e9e9" stroke="url(#f)"/><path d="m2.205 1.5c-.39 0-.705.372-.705.834v1.666h12v-1.666c0-.462-.314-.834-.705-.834z" fill="none" opacity=".8" stroke="#fff"/><path d="m1 5h13v9h-13z" fill="#fff"/><path d="m1 4.5h13" fill="none" stroke="#8c8c8c"/><path d="m16.685 9.236 7.01-6.12-7.034-5.9v3.644l-6.183-.012.022 4.652 6.185.014z" display="block" fill="url(#a)" transform="matrix(0 .64678 .64678 0 2.94 -6.276)"/><path d="m8.914 4.547-3.974 4.987-3.802-5.004h2.36l-.01-4 3.01.016.01 4z" style="display:block;stroke-miterlimit:7;fill:none;stroke:#7239b3;stroke-linejoin:round;stroke-opacity:.875"/><path d="m17.685 7.126 5.145-4.036-5.17-3.8v2.574l-6.184-.014.024 2.65 6.185.014z" display="block" fill="none" stroke="url(#c)" stroke-miterlimit="7" stroke-width=".964" transform="matrix(0 .64678 .64678 0 2.94 -6.276)"/><path d="m14.914 11.498-3.96-4.533-3.815 4.55h2.356l-.008 4 3.01-.016.008-4.002z" display="block" fill="url(#e)"/><g stroke-miterlimit="7"><path d="m14.914 11.5-3.974-4.99-3.802 5.002h2.36l-.01 4 3.01-.015.01-4z" display="block" fill="#46a9eb" fill-opacity=".984" stroke="#2f78c8" stroke-linejoin="round"/><path d="m13.55 10.852-2.61-3.328-2.46 3.344h1.666l-.01 4 1.714-.016.01-4z" display="block" fill="none" stroke="url(#d)" stroke-width=".623"/></g></svg>

<?xml version="1.0" encoding="UTF-8" standalone="no"?>
<svg
   xmlns:dc="http://purl.org/dc/elements/1.1/"
   xmlns:cc="http://creativecommons.org/ns#"
   xmlns:rdf="http://www.w3.org/1999/02/22-rdf-syntax-ns#"
   xmlns:svg="http://www.w3.org/2000/svg"
   xmlns="http://www.w3.org/2000/svg"
   xmlns:xlink="http://www.w3.org/1999/xlink"
   xmlns:sodipodi="http://sodipodi.sourceforge.net/DTD/sodipodi-0.dtd"
   xmlns:inkscape="http://www.inkscape.org/namespaces/inkscape"
   height="16"
   width="16"
   version="1.1"
   id="svg59"
   sodipodi:docname="sc20234.svg"
   inkscape:version="0.92.3 (unknown)"
   inkscape:export-filename="/home/rizmut/Dokumen/Rizmut/Github/libreoffice-style-elementary/images_elementary/sw/res/sc20234.png"
   inkscape:export-xdpi="96"
   inkscape:export-ydpi="96">
  <metadata
     id="metadata63">
    <rdf:RDF>
      <cc:Work
         rdf:about="">
        <dc:format>image/svg+xml</dc:format>
        <dc:type
           rdf:resource="http://purl.org/dc/dcmitype/StillImage" />
        <dc:title></dc:title>
      </cc:Work>
    </rdf:RDF>
  </metadata>
  <sodipodi:namedview
     pagecolor="#ffffff"
     bordercolor="#666666"
     borderopacity="1"
     objecttolerance="10"
     gridtolerance="10"
     guidetolerance="10"
     inkscape:pageopacity="0"
     inkscape:pageshadow="2"
     inkscape:window-width="1366"
     inkscape:window-height="706"
     id="namedview61"
     showgrid="false"
     inkscape:zoom="14.75"
     inkscape:cx="-0.71186441"
     inkscape:cy="7.4576271"
     inkscape:window-x="0"
     inkscape:window-y="0"
     inkscape:window-maximized="1"
     inkscape:current-layer="svg59" />
  <defs
     id="defs35">
    <linearGradient
       xlink:href="#a"
       id="b"
       x1="10.476"
       y1="3.225"
       x2="23.695"
       y2="3.225"
       gradientUnits="userSpaceOnUse" />
    <linearGradient
       id="a">
      <stop
         offset="0"
         stop-color="#cd9ef7"
         id="stop3" />
      <stop
         offset="1"
         stop-color="#a56de2"
         id="stop5" />
    </linearGradient>
    <linearGradient
       id="c"
       gradientTransform="matrix(0 -.5372 .57682 0 -15.997 19.866)"
       gradientUnits="userSpaceOnUse"
       x1="30.782"
       x2="31.082"
       y1="47.444"
       y2="66.576">
      <stop
         offset="0"
         stop-color="#fff"
         id="stop8" />
      <stop
         offset=".21"
         stop-color="#fff"
         stop-opacity=".235"
         id="stop10" />
      <stop
         offset=".859"
         stop-color="#fff"
         stop-opacity=".157"
         id="stop12" />
      <stop
         offset="1"
         stop-color="#fff"
         stop-opacity=".392"
         id="stop14" />
    </linearGradient>
    <linearGradient
       id="e"
       gradientTransform="matrix(-.34745 0 0 -.37308 21.79 32.637)"
       gradientUnits="userSpaceOnUse"
       x1="30.655"
       x2="30.828"
       y1="65.687"
       y2="48.688">
      <stop
         offset="0"
         stop-color="#fff"
         id="stop17" />
      <stop
         offset=".21"
         stop-color="#fff"
         stop-opacity=".235"
         id="stop19" />
      <stop
         offset=".859"
         stop-color="#fff"
         stop-opacity=".157"
         id="stop21" />
      <stop
         offset="1"
         stop-color="#fff"
         stop-opacity=".392"
         id="stop23" />
    </linearGradient>
    <linearGradient
       id="d"
       gradientTransform="matrix(0 -.31835 .29648 0 5.84 19.373)"
       gradientUnits="userSpaceOnUse"
       x1="39.242"
       x2="10.382"
       y1="15.935"
       y2="17.179">
      <stop
         offset="0"
         stop-color="#90dbec"
         id="stop26" />
      <stop
         offset=".262"
         stop-color="#55c1ec"
         id="stop28" />
      <stop
         offset=".705"
         stop-color="#3689e6"
         id="stop30" />
      <stop
         offset="1"
         stop-color="#2b63a0"
         id="stop32" />
    </linearGradient>
    <linearGradient
       gradientTransform="matrix(0.2538,0,0,0.30502,0.75711864,-3.7358475)"
       gradientUnits="userSpaceOnUse"
       xlink:href="#a-3"
       id="f"
       y2="2.9059999"
       x2="-51.785999"
       y1="50.785999"
       x1="-51.785999" />
    <linearGradient
       id="a-3">
      <stop
         offset="0"
         stop-opacity=".34"
         id="stop3-6" />
      <stop
         offset="1"
         stop-opacity=".247"
         id="stop5-7" />
    </linearGradient>
    <linearGradient
       inkscape:collect="always"
       xlink:href="#a-3"
       id="linearGradient890"
       x1="8.3389826"
       y1="14.008475"
       x2="8.2881355"
       y2="1.1271187"
       gradientUnits="userSpaceOnUse" />
  </defs>
  <path
     d="M1.974.5C1.157.5.5 1.157.5 1.974V14.5h14V1.973C14.5 1.157 13.843.5 13.026.5z"
     fill="#e9e9e9"
     stroke="#8c8c8c"
     id="path37"
     style="stroke:url(#linearGradient890)" />
  <path
     d="M2.205 1.5c-.39 0-.705.372-.705.834V4h12V2.334c0-.462-.314-.834-.705-.834z"
     fill="none"
     opacity=".8"
     stroke="#fff"
     id="path39" />
  <path
     d="M1 5h13v9H1z"
     fill="#fff"
     id="path41" />
  <path
     d="M1 4.5h13"
     fill="none"
     stroke="#8c8c8c"
     id="path43" />
  <path
     d="M16.685 9.236l7.01-6.12-7.034-5.9V.86L10.478.848 10.5 5.5l6.185.014z"
     display="block"
     transform="matrix(0 .64678 .64678 0 2.94 -6.276)"
     fill="url(#b)"
     id="path45" />
  <path
     d="M8.914 4.547L4.94 9.534 1.138 4.53h2.36l-.01-4 3.01.016.01 4z"
     display="block"
     stroke-miterlimit="7"
     fill="none"
     stroke="#7239b3"
     stroke-linejoin="round"
     stroke-opacity=".875"
     id="path47" />
  <path
     d="M17.685 7.126L22.83 3.09l-5.17-3.8v2.574l-6.184-.014.024 2.65 6.185.014z"
     display="block"
     stroke-miterlimit="7"
     transform="matrix(0 .64678 .64678 0 2.94 -6.276)"
     fill="none"
     stroke="url(#c)"
     stroke-width=".964"
     id="path49" />
  <g
     id="g57">
    <path
       display="block"
       d="M14.914 11.498l-3.96-4.533-3.815 4.55h2.356l-.008 4 3.01-.016.008-4.002z"
       fill="url(#d)"
       id="path51" />
    <path
       stroke-miterlimit="7"
       display="block"
       d="M14.914 11.5L10.94 6.51l-3.802 5.002h2.36l-.01 4 3.01-.015.01-4z"
       fill="#46a9eb"
       fill-opacity=".984"
       stroke="#2f78c8"
       stroke-linejoin="round"
       id="path53" />
    <path
       stroke-miterlimit="7"
       display="block"
       d="M13.55 10.852l-2.61-3.328-2.46 3.344h1.666l-.01 4 1.714-.016.01-4z"
       fill="none"
       stroke="url(#e)"
       stroke-width=".623"
       id="path55" />
  </g>
</svg>
